src/assets/svgs/refactor/double-eyes.svg

<svg fill="none" height="27" viewBox="0 0 33 27" width="33" xmlns="http://www.w3.org/2000/svg"><g fill="#101010"><path clip-rule="evenodd" d="m14.9206 22.5737c-1.5274 2.3276-3.653 3.7878-6.05743 3.8462v.011h-.15c-2.46613 0-4.64848-1.4746-6.2075-3.8526-1.559273-2.3785-2.50567-5.6735-2.50567-9.3583 0-3.68478.946399-6.97749 2.5057-9.35368 1.55908-2.37585 3.74144-3.8480095 6.20747-3.8480095s4.64843 1.4721595 6.20743 3.8480095c1.5593 2.37619 2.5057 5.6689 2.5057 9.35368 0 3.6848-.9464 6.9775-2.5057 9.3537zm-6.1453-20.1031.00865-.00864c1.36655.02462 2.68505.86772 3.74935 2.32476 1.0329 1.41401 1.8141 3.39184 2.1511 5.70308-.453-.2463-.9536-.3723-1.4735-.3723-1.0242 0-1.981.5025-2.5609 1.3434-.4733.6857-.6476 1.5081-.493 2.3203.1543.8196.6083 1.5261 1.295 1.9907.5135.3582 1.1229.5414 1.7497.5414.5338 0 1.05-.1327 1.5472-.3585-.3684 2.3023-1.1668 4.2799-2.2117 5.6944-1.0885 1.4737-2.4308 2.3202-3.82403 2.3202-1.66175 0-3.22424-1.1957-4.37993-3.1613-1.1528-1.9607-1.88095-4.6586-1.88095-7.5881s.72815-5.62736 1.88095-7.58804c1.15569-1.96558 2.71818-3.16136 4.37993-3.16136z" fill-rule="evenodd"/><path d="m29.8945 3.84801c-1.5591-2.37585-3.7414-3.84801-6.2074-3.84801l-.0051.00008467c-2.2349.07512413-4.2636 1.16442533-5.569 2.92921533l-.7439.96434c-.4366.56162-.3337 1.37375.2296 1.80202.5618.43637 1.374.33314 1.8021-.23059l.0089-.01179.0065-.0133c.8037-1.65209 2.4379-2.78819 4.2784-2.97848 1.3858.00308 2.7251.84909 3.8034 2.3253 1.0326 1.41363 1.8137 3.39074 2.1508 5.7011-.4497-.2453-.9555-.3703-1.4732-.3703-1.0633 0-2.0202.5229-2.6175 1.4282-.5137.7661-.6392 1.7534-.3294 2.6345.4526 1.2905 1.6116 2.1331 2.9561 2.1331.5338 0 1.05-.1328 1.5472-.3585-.3686 2.3022-1.1691 4.2797-2.2162 5.6943-1.0889 1.4711-2.4308 2.3174-3.8215 2.3203-1.8396-.1812-3.4741-1.3258-4.2781-2.9785l-.0072-.0147-.0101-.0128c-.4368-.5511-1.2375-.6555-1.7996-.2287l-.0024.0019c-.5511.4367-.6554 1.2374-.2286 1.7995l.0007.0009.744.9646c1.3057 1.7652 3.3343 2.8447 5.5684 2.9292l.1557.0059v-.0352c2.4044-.0584 4.53-1.5186 6.0574-3.8462 1.5593-2.3762 2.5057-5.6689 2.5057-9.3537 0-3.68479-.9464-6.9775-2.5057-9.35369z"/></g></svg>

<svg width="33" height="27" viewBox="0 0 33 27" fill="none" xmlns="http://www.w3.org/2000/svg">
<g id="Looking">
<path fill-rule="evenodd" clip-rule="evenodd" d="M14.9206 22.5737C13.3932 24.9013 11.2676 26.3615 8.86317 26.4199V26.4309H8.71317C6.24704 26.4309 4.06469 24.9563 2.50567 22.5783C0.946397 20.1998 0 16.9048 0 13.22C0 9.53522 0.946399 6.24251 2.5057 3.86632C4.06478 1.49047 6.24714 0.0183105 8.71317 0.0183105C11.1792 0.0183105 13.3616 1.49047 14.9206 3.86632C16.4799 6.24251 17.4263 9.53522 17.4263 13.22C17.4263 16.9048 16.4799 20.1975 14.9206 22.5737ZM8.7753 2.4706L8.78395 2.46196C10.1505 2.48658 11.469 3.32968 12.5333 4.78672C13.5662 6.20073 14.3474 8.17856 14.6844 10.4898C14.2314 10.2435 13.7308 10.1175 13.2109 10.1175C12.1867 10.1175 11.2299 10.62 10.65 11.4609C10.1767 12.1466 10.0024 12.969 10.157 13.7812C10.3113 14.6008 10.7653 15.3073 11.452 15.7719C11.9655 16.1301 12.5749 16.3133 13.2017 16.3133C13.7355 16.3133 14.2517 16.1806 14.7489 15.9548C14.3805 18.2571 13.5821 20.2347 12.5372 21.6492C11.4487 23.1229 10.1064 23.9694 8.71317 23.9694C7.05142 23.9694 5.48893 22.7737 4.33324 20.8081C3.18044 18.8474 2.45229 16.1495 2.45229 13.22C2.45229 10.2905 3.18044 7.59264 4.33324 5.63196C5.48893 3.66638 7.05142 2.4706 8.71317 2.4706H8.7753Z" fill="#101010"/>
<path d="M29.8945 3.84801C28.3354 1.47216 26.1531 0 23.6871 0L23.682 8.46684e-05C21.4471 0.0752088 19.4184 1.16451 18.113 2.9293L17.3691 3.89364C16.9325 4.45526 17.0354 5.26739 17.5987 5.69566C18.1605 6.13203 18.9727 6.0288 19.4008 5.46507L19.4097 5.45328L19.4162 5.43998C20.2199 3.78789 21.8541 2.65179 23.6946 2.4615C25.0804 2.46458 26.4197 3.31059 27.498 4.7868C28.5306 6.20043 29.3117 8.17754 29.6488 10.4879C29.1991 10.2426 28.6933 10.1176 28.1756 10.1176C27.1123 10.1176 26.1554 10.6405 25.5581 11.5458C25.0444 12.3119 24.9189 13.2992 25.2287 14.1803C25.6813 15.4708 26.8403 16.3134 28.1848 16.3134C28.7186 16.3134 29.2348 16.1806 29.732 15.9549C29.3634 18.2571 28.5629 20.2346 27.5158 21.6492C26.4269 23.1203 25.085 23.9666 23.6943 23.9695C21.8547 23.7883 20.2202 22.6437 19.4162 20.991L19.409 20.9763L19.3989 20.9635C18.9621 20.4124 18.1614 20.308 17.5993 20.7348L17.5969 20.7367C17.0458 21.1734 16.9415 21.9741 17.3683 22.5362L17.369 22.5371L18.113 23.5017C19.4187 25.2669 21.4473 26.3464 23.6814 26.4309L23.8371 26.4368V26.4016C26.2415 26.3432 28.3671 24.883 29.8945 22.5554C31.4538 20.1792 32.4002 16.8865 32.4002 13.2017C32.4002 9.51691 31.4538 6.2242 29.8945 3.84801Z" fill="#101010"/>
</g>
</svg>
